X:1
T:Sonata in G major
T:Sonata in G major
T:for Descant Recorder and Piano
T:James Hook (1746 - 1827)
T:Arr. and edited by Ben Geurts 
C:James Hook
Z:Arr. and edited by Ben Geurts
%%score 1 { 2 | 3 }
L:1/8
Q:1/4=144
M:4/4
K:G
V:1 treble+8 nm="Descant Recorder" snm="D. Rec."
V:2 treble nm="Grand Piano" snm="Pno."
V:3 bass 
V:1
!mf!"^Allegro" G4 G2 G2 | A2 A2 !>!d4 | B2 G2 F2 G2 | BAGF EDEF | G4 G2 G2 | A2 A2 !>!d4 | %6
 d2 ec B2 A2 | TA4 G2 z2 |!f! d2 d4 BG | c2 c4 AF | G2 G2 F2 G2 | BAGF EDEF | G2 d4 BG | c2 c4 AF | %14
 G2 ec B2 A2 | TA4 G2 z2 |!mp! G2 GA G2 GA | (GA)Bc d2 z2 | G2 GA G2 G2 | GD!<(!EF GABc!<)! | %20
 !>!d2 !>!d2 !>!e2 !>!e2 | d4 (cB)AG | B2 e2 d2 ^c2 | d4!f! A>BA>B | A>BA>B A>BA>B | %25
 A>BA>B A>BA>B | A>BA>B A>BA>B | A2 Be d2 ^c2 | d4!mf! E>FE>F | D2 A2 E>FE>F | D2 A2 E>FE>F | %31
 DFAd A2 ^c2 |!<(! d2 e2 d2 ^c2 |!f! d2!<)! z2 z4 | z8 | z8 |!>(! (de)dB (cd)cA!>)! |!p! G4 G2 G2 | %38
 A2 A2 !>!d4 | B2 G2 F2 G2 | (BA)GF EDEF | G4 G2 G2 | A2 A2 !>!d4 | d2 ec B2 A2 | TA4 G2 z2 | %45
!f! d2 !>!d4 BG | c2 !>!c4 AF | G2 G2 F2 G2 | BAGF EDEF | G2 !>!d4 BG | c2 !>!c4 AF | G2 ec B2 A2 | %52
 TA4 G2 z2 | z8 |!p! .F2 .F2 (FG)AB | c2 z2 z4 | .G2 .G2 (GA)Bc | d2 z2 z4 | .d2 .d2 (ed)cB | %59
 .A2 .B2 .c2 .B2 | (B4 A2) z2 | z8 | .F2 .F2 (FG)AB | c2 z2 z4 | .G2 .G2!<(! (GA)Bc!<)! | %65
 B2 e2 e4 | A2 d2 d4 | B2 e2 d2 ^c2 | d2 z2 z4 |!p! z2"^marcato" B2 B2 cd | e6 d2 | ^c2 c2 c2 de | %72
 f6 e2 | ^d2 d2 d2 ef | g6 =f2 | e2 e2 e2 ^fg | a6 g2 | f2 f2 f2 ga | b4 a4 | .g2!f! e4 d2- | %80
 d2 c4 B2- | B2 A4 G2 | FGAB c2 B2 | A2!mp! DE FGAB | .c2 .c2 .B2 .B2 | A2!f! DE FGAB | %86
 !>!c2 !>!c2 !>!B2 !>!B2 | !>!A2 z2 z4 | z8 |!p! G4 G2 G2 | A2 A2 !>!d4 | B2 d2 c2 B2 | %92
 (BA)GF EDEF | G4 G2 G2 | A2 A2 !>!d4 | (cB)cA G2 F2 | A4 G2 z2 |!f! d2 !>!d4 BG | c2 !>!c4 AF | %99
 G2 G2 F2 G2 | BAGF EDdc | B2 !>!d4 BG | c2 !>!c4 AF | G2 ec B2 A2 | G4 !>!e2 !>!e2 | %105
 d4 !>!e2 !>!e2 | d4 !>!e2 !>!e2 | d4 !>!e2 !>!e2 | !>!d2 !>!c2 !>!B2 !>!A2 | !>!G4!mf! .D2 .D2 | %110
 .G2 .G2 .B2 .B2 | d6 cB | A2 A2 BAGA | (B2 G2)!f! .D2 .D2 | .G2 .G2 .B2 .B2 | d6 cB | A2 A2 AGAB | %117
 G4 dcBA | G2 G2 BAGA | (B2 G2) dcBA | G2 G2 AGAB | G4 !>!d4 | !>!g4 z4 |] %123
V:2
!mf! G4 G2 G2 | A2 A2 d4 | B2 d2 c2 B2 | (BA)GF EDEF | G4 G2 G2 | A2 A2 d4 | (cB)cA G2 F2 | %7
 [CA]4 [B,G]2 z2 |!f! g4{/f} g2{/f} g2 |{/^g} a2{/g} a2 d'4 | b2 d'2 c'2 b2 | (ba)gf edef | %12
 g4{/f} g2{/f} g2 |{/^g} a2{/g} a2 d'4 | (c'b)c'a g2 f2 | [ca]4 [Bg]2 z2 |!mp! d2 d2 e2 e2 | %17
 d4 cBAG | d2 d2 efge | d4 z4 | d2 d2 e2 e2 | d4 (cB)AG | efge fde^c | d4!f! eA!>!^cA | %24
 dAfd eA!>!^cA | dAfd eA!>!^cA | dAfd eAgA | fdge fde^c | d4!mf! eA^cA | dAfA eA!>!^cA | %30
 dAfA eA!>!^cA | dAfA eAgA |!<(! fdge fde^c!<)! |!f! (de)d^c (de)dc | (de)d^c (de)dc | %35
!>(! (de)dB (=cd)cA | ((Bc))BG ABAF!>)! |!p! G4 G2 G2 | A2 A2 d4 | B2 d2 c2 B2 | (BA)GF EDEF | %41
 G4 G2 G2 | A2 A2 d4 | (cB)cA G2 F2 | [CA]4 [B,G]2 z2 |!f! g4{/f} g2{/f} g2 |{/^g} a2{/g} a2 d'4 | %47
 b2 d'2 c'2 b2 | (ba)gf edef | g4{/f} g2{/f} g2 |{/^g} a2{/g} a2 d'4 | (c'b)c'a g2 f2 | %52
 [ca]4 [Bg]2 z2 |!p! !>!B4 (cBAG) | .c2 .A2 .F2 z2 | !>!c4 (dcBA) | .d2 .B2 .G2 z2 | !>!g4 (agfe) | %58
 .d2 .d2 (ed)cB | AcBd .c2 .B2 | (B4 A2) z2 | !>!B4 (cBAG) | .c2 .A2 .F2 z2 | !>!c4 (dcBA) | %64
 .d2 .B2 .G2 z2 | !>!g4 (agfe) | !>!a4 (gfed) | efge fde^c | d2"^marcato" D2 D2 EF | G6 =F2 | %70
 E2 E2 E2 F^G | A6 =G2 | F2 F2 F2 ^G^A | B6 A2 | =G2 G2 G2 AB | c6 B2 | A2 A2 A2 B^c | d6 =c2 | %78
 B2 d2 A2 dc | B2 cB A2!f! d2 | G2 c2 F2 B2 | E2 FE D2 G2 | FGAB cABG | FA!mp!DE FGAB | cAdc BdBG | %85
 FA!f!DE FGAB | cAdc BdBG | FADE FGAF |!>(! DEFG ABcA!>)! |!p! G4 G2 G2 | A2 A2 d4 | B2 d2 c2 B2 | %92
 (BA)GF EDEF | G4 G2 G2 | A2 A2 d4 | (cB)cA G2 F2 | [CA]4 [B,G]2 z2 |!f! g4{/f} g2{/f} g2 | %98
{/^g} a2{/g} a2 d'4 | b2 d'2 c'2 b2 | (ba)gf edef | g4{/f} g2{/f} g2 |{/^g} a2{/g} a2 d'4 | %103
 (c'b)c'a g2 f2 | g4 (eg)ec | BdBG (eg)ec | BdBG (eg)ec | BdBG (eg)ec | BdcA BGAF | %109
 G4!mf! .D2 .D2 | .G2 .G2 .B2 .B2 | d6 cB | A2 A2 BAGA | (B2 G2)!f! .D2 .D2 | .G2 .G2 .B2 .B2 | %115
 d6 cB | A2 A2 AGAB | G4 dcBA | G2 G2 BAGA | (B2 G2) dcBA | G2 G2 AGAB | G4 !>![Bg]4 | %122
 !>![Bg]4 z4 |] %123
V:3
 G,DB,D G,DB,D | F,DA,D F,DA,D | G,DB,D A,DG,D | D,4 z4 | G,DB,D G,DB,D | F,DA,D F,DA,D | %6
 G,2 C2 D2 D,2 | G,2 D,2 G,,2 z2 | G,DB,D G,DB,D | F,DA,D F,DA,D | G,DB,D A,DG,D | D,4 z4 | %12
 G,DB,D G,DB,D | F,DA,D F,DA,D | G,2 C2 D2 D,2 | G,2 D,2 G,,2 z2 | G,DB,D G,ECE | G,DB,D G,DB,D | %18
 G,DB,D G,ECE | G,DB,D!<(! G,DB,D!<)! | G,DB,D G,ECE | G,DB,D G,DB,D | G,2 E,2 A,2 A,,2 | %23
 D,2 D,,2 z2[K:treble] G2 | F2 D2 z2 G2 | F2 D2 z2 G2 | F2 D2[K:bass] ^C2 A,2 | D2 G,2 A,2 A,,2 | %28
 D,2 D,,2 z2 G,2 | F,2 D,2 z2 G,2 | F,2 D,2 z2 G,2 | F,2 D,2 ^C,2 A,,2 | D,2 G,2 A,2 A,,2 | %33
 D,2 z2 z4 | z8 | D,2 z2 D2 z2 | D,2 z2 D2 z2 | G,DB,D G,DB,D | F,DA,D F,DA,D | G,DB,D A,DG,D | %40
 D,4 z4 | G,DB,D G,DB,D | F,DA,D F,DA,D | G,2 C2 D2 D,2 | G,2 D,2 G,,2 z2 | G,DB,D G,DB,D | %46
 F,DA,D F,DA,D | G,DB,D A,DG,D | D,4 z4 | G,DB,D G,DB,D | F,DA,D F,DA,D | G,2 C2 D2 D,2 | %52
 G,2 D,2 G,,2 z2 | G,DB,D G,DB,D | A,DCD A,DCD | F,DA,D F,DA,D | G,DB,D G,DB,D | G,DB,D G,ECE | %58
 G,DB,D G,DB,D | F,DG,D A,DG,D | D,D^CD =CDA,D | G,DB,D G,DB,D | A,DCD A,DCD | F,DA,D F,DA,D | %64
 G,DB,D G,DB,D | G,EB,E G,EB,E | F,DA,D F,DA,D | G,2 E,2 A,2 A,,2 | D,4 z4 | z2 G,2 G,2 A,B, | %70
 C6 B,2 | A,2 A,2 A,2 B,^C | D6 ^C2 | B,2 B,2 B,2 ^C^D | E6 =D2 | C2 C2 C2 DE | F6[K:treble] E2 | %77
 D2 D2 D2 EF | G2 D2 F2 D2 | G6 F2- | F2 E4[K:bass] D2- | D2 C4 B,2 | A,4 F,2 G,2 | D,4 z4 | %84
 F,4 G,4 | D,4 z4 | !>!F,4 !>!G,4 | !>!D,4 z4 | D,4 z4 | G,DB,D G,DB,D | F,DA,D F,DA,D | %91
 G,DB,D A,DG,D | D,4 z4 | G,DB,D G,DB,D | F,DA,D F,DA,D | G,2 C2 D2 D,2 | G,2 D,2 G,,2 z2 | %97
 G,DB,D G,DB,D | F,DA,D F,DA,D | G,DB,D A,DG,D | D,4 z4 | G,DB,D G,DB,D | F,DA,D F,DA,D | %103
 G,2 C2 D2 D,2 | G,DB,D G,ECE | G,DB,D G,ECE | G,DB,D G,ECE | G,DB,D G,ECE | G,2 C2 D2 D,2 | %109
 G,4 z4 | z4 .D,2 .D,2 | .G,2 .G,2 .B,2 .B,2 | D4 D,4 | G,4 z4 | z4 .D,2 .D,2 | %115
 .G,2 .G,2 .B,2 .B,2 | D4 D,4 | G,2 D2 F,2 D2 | G,2 D2 D,2 D2 | G,2 D2 F,2 D2 | G,2 D2 D,2 D2 | %121
 G,4 !>![G,,G,]4 | !>![G,,G,]4 z4 |] %123

